X: 125
T: Night Piece
M:6/8
L:1/8
Q:160
S:Playford
O:Manuscript
N: repeat B 3 times
A:English
K:D
f2 d a2 f|d2 A d f2|e g2 fed|c>ef g3 a|f2 d a2 f|d2 A d f2|e g2 f>ed|c>ef g2|| a|bga gaf|efd e2 A| ddc ddA| fe>d d2:|

